dist/img/svg/icon-playstation.svg

<svg width="20" height="20" viewBox="0 0 20 20" fill="none" xmlns="http://www.w3.org/2000/svg">
<g clip-path="url(#clip0_6_8411)">
<path fill-rule="evenodd" clip-rule="evenodd" d="M9.769 6.5293C9.18328 6.5293 8.75255 6.51861 8.39977 6.50985C7.97246 6.49924 7.65952 6.49147 7.32403 6.50898C6.80934 6.53585 6.30814 6.62759 5.33252 6.95153C3.73042 7.48348 2.53212 9.26102 2.19656 10.9322C1.96205 12.1001 1.94257 12.8974 2.10734 13.3757C2.17805 13.581 2.27387 13.7002 2.39293 13.7828C2.5222 13.8723 2.75526 13.9706 3.17833 13.9967C3.56645 14.0206 3.95206 13.8862 4.33229 13.6469C4.71512 13.406 5.02509 13.1025 5.26195 12.8665C6.23306 11.899 7.59767 11.1551 9.769 11.1551C11.9403 11.1551 13.3049 11.899 14.276 12.8665C14.5129 13.1025 14.8229 13.406 15.2057 13.6469C15.5859 13.8862 15.9715 14.0206 16.3597 13.9967C16.7827 13.9706 17.0158 13.8723 17.1451 13.7828C17.2641 13.7002 17.3599 13.581 17.4306 13.3757C17.5954 12.8974 17.5759 12.1001 17.3414 10.9322C17.0059 9.26102 15.8076 7.48348 14.2055 6.95153C13.2299 6.62759 12.7287 6.53585 12.214 6.50898C11.8785 6.49147 11.5655 6.49924 11.1382 6.50985C10.7854 6.51861 10.3547 6.5293 9.769 6.5293ZM9.769 4.5293C10.2134 4.5293 10.6124 4.52053 10.9738 4.51259C11.4913 4.50121 11.9318 4.49153 12.3182 4.5117C13.0723 4.55106 13.759 4.69591 14.8357 5.05342C17.3383 5.88437 18.8776 8.4234 19.3023 10.5384C19.5429 11.7369 19.675 13.0013 19.3216 14.0272C19.1332 14.574 18.8025 15.0674 18.2844 15.4265C17.7764 15.7786 17.1616 15.951 16.4828 15.9929C15.5353 16.0513 14.7331 15.7125 14.1405 15.3396C13.5546 14.971 13.1091 14.527 12.8695 14.2884L12.8645 14.2834C12.2595 13.6806 11.3989 13.1551 9.769 13.1551C8.13904 13.1551 7.27852 13.6806 6.6735 14.2834L6.66847 14.2884C6.42893 14.527 5.98335 14.971 5.3975 15.3396C4.80493 15.7125 4.00265 16.0513 3.0552 15.9929C2.37641 15.951 1.76158 15.7786 1.25364 15.4265C0.735483 15.0674 0.404783 14.574 0.216403 14.0272C-0.137008 13.0013 -0.00494936 11.7369 0.235701 10.5384C0.660394 8.4234 2.19969 5.88437 4.70229 5.05342C5.77902 4.69591 6.46572 4.55106 7.21978 4.5117C7.60619 4.49153 8.04667 4.50121 8.56416 4.51259C8.9256 4.52053 9.32461 4.5293 9.769 4.5293Z" fill="black"/>
<path d="M5.1352 7.69141V11.577M3.19238 9.63423H7.07802" stroke="black"/>
<circle cx="13.9039" cy="8.33899" r="0.647584" fill="black"/>
<circle cx="13.9039" cy="10.9293" r="0.647584" fill="black"/>
<circle cx="12.6095" cy="9.63391" r="0.647584" fill="black"/>
<circle cx="15.1998" cy="9.63391" r="0.647584" fill="black"/>
</g>
<defs>
<clipPath id="clip0_6_8411">
<rect width="20" height="20" fill="white"/>
</clipPath>
</defs>
</svg>

<svg width="20" height="20" fill="none" xmlns="http://www.w3.org/2000/svg"><g clip-path="url(#clip0_6_8411)"><path fill-rule="evenodd" clip-rule="evenodd" d="M9.769 6.53c-.586 0-1.016-.011-1.37-.02-.427-.01-.74-.019-1.075-.001-.515.027-1.016.119-1.991.443-1.603.531-2.8 2.309-3.136 3.98-.235 1.168-.254 1.965-.09 2.444a.766.766 0 00.286.407c.13.09.362.188.785.214.388.024.774-.11 1.154-.35.383-.241.693-.545.93-.78.971-.968 2.336-1.712 4.507-1.712s3.536.744 4.507 1.712c.237.235.547.539.93.78.38.24.766.374 1.154.35.423-.026.656-.125.785-.214.12-.083.215-.202.286-.407.164-.479.145-1.276-.09-2.444-.335-1.671-1.533-3.449-3.136-3.98-.975-.324-1.476-.416-1.991-.443-.335-.018-.649-.01-1.076 0-.353.01-.783.02-1.369.02zm0-2c.444 0 .843-.01 1.205-.017.517-.012.958-.021 1.344-.001.754.04 1.441.184 2.518.541 2.502.831 4.042 3.37 4.466 5.485.24 1.199.373 2.463.02 3.49a2.755 2.755 0 01-1.038 1.399c-.508.352-1.122.524-1.801.566-.948.058-1.75-.28-2.343-.653-.585-.369-1.03-.813-1.27-1.052l-.005-.005c-.606-.602-1.466-1.128-3.096-1.128-1.63 0-2.49.526-3.096 1.128l-.005.005c-.24.239-.685.683-1.27 1.052-.593.373-1.395.711-2.343.653-.679-.042-1.293-.214-1.801-.566a2.754 2.754 0 01-1.038-1.4c-.353-1.026-.22-2.29.02-3.489C.66 8.423 2.2 5.884 4.702 5.053c1.077-.357 1.764-.502 2.518-.541.386-.02.827-.01 1.344 0 .362.009.76.017 1.205.017z" fill="#000"/><path d="M5.135 7.691v3.886M3.192 9.634h3.886" stroke="#000"/><circle cx="13.904" cy="8.339" r=".648" fill="#000"/><circle cx="13.904" cy="10.929" r=".648" fill="#000"/><circle cx="12.61" cy="9.634" r=".648" fill="#000"/><circle cx="15.2" cy="9.634" r=".648" fill="#000"/></g><defs><clipPath id="clip0_6_8411"><path fill="#fff" d="M0 0h20v20H0z"/></clipPath></defs></svg>
